icons/drug.svg

<svg id="_x33_0" enable-background="new 0 0 64 64" height="512" viewBox="0 0 64 64" width="512" xmlns="http://www.w3.org/2000/svg"><g><g><g><path d="m40 20c3.31 0 6 2.69 6 6 0 1.66-.67 3.16-1.76 4.24-1.08 1.09-2.58 1.76-4.24 1.76h-14c-2.21 0-4 1.79-4 4 0 1.1.45 2.1 1.17 2.83.73.72 1.73 1.17 2.83 1.17h3v4h-16c-3.87 0-7-3.13-7-7 0-1.94.78-3.68 2.05-4.95s3.01-2.05 4.95-2.05h4c1.66 0 3-1.34 3-3 0-.83-.34-1.58-.88-2.12s-1.29-.88-2.12-.88h-4c-6.08 0-11-4.92-11-11 0-3.04 1.23-5.79 3.22-7.78s4.74-3.22 7.78-3.22h12c3.87 0 7 3.13 7 7 0 1.94-.78 3.68-2.05 4.95s-3.01 2.05-4.95 2.05h-2v4z" fill="#ccd1d9"/></g><g><path d="m42 52v4c0 3.31-2.69 6-6 6h-28c-3.31 0-6-2.69-6-6v-4c0-1.1.9-2 2-2h12c.55 0 1 .45 1 1 0 1.38.56 2.63 1.46 3.54.91.9 2.16 1.46 3.54 1.46s2.63-.56 3.54-1.46c.9-.91 1.46-2.16 1.46-3.54 0-.55.45-1 1-1h12c1.1 0 2 .9 2 2z" fill="#b27946"/></g><g><path d="m62 41v4c0 .55-.45 1-1 1h-11v-6h11c.55 0 1 .45 1 1z" fill="#cf9e76"/></g><g><path d="m36 40h14v6h-14z" fill="#e6e9ed"/></g><g><path d="m36 40v6h-3c-.55 0-1-.45-1-1v-4c0-.55.45-1 1-1z" fill="#cf9e76"/></g></g><g><path d="m61 39h-28c-1.103 0-2 .897-2 2v4c0 1.103.897 2 2 2h28c1.103 0 2-.897 2-2v-4c0-1.103-.897-2-2-2zm-12 2v4h-12v-4zm-16 0h2v4h-2zm18 4v-4h10l.002 4z"/><path d="m40 49h-12c-1.103 0-2 .897-2 2 0 2.206-1.794 4-4 4s-4-1.794-4-4c0-1.103-.897-2-2-2h-12c-1.654 0-3 1.346-3 3v4c0 3.859 3.141 7 7 7h28c3.859 0 7-3.141 7-7v-4c0-1.654-1.346-3-3-3zm1 7c0 2.757-2.243 5-5 5h-28c-2.757 0-5-2.243-5-5v-4c0-.552.448-1 1-1h12c0 3.309 2.691 6 6 6s6-2.691 6-6h12c.552 0 1 .448 1 1z"/><path d="m27 21h13c2.757 0 5 2.243 5 5s-2.243 5-5 5h-14c-2.757 0-5 2.243-5 5s2.243 5 5 5h3v-2h-3c-1.654 0-3-1.346-3-3s1.346-3 3-3h14c3.859 0 7-3.14 7-7s-3.141-7-7-7h-13z"/><path d="m15 13h-2v2h2c2.206 0 4-1.794 4-4s-1.794-4-4-4c-3.309 0-6 2.691-6 6s2.691 6 6 6h2v-2h-2c-2.206 0-4-1.794-4-4s1.794-4 4-4c1.103 0 2 .897 2 2s-.897 2-2 2z"/><path d="m13 25h4c1.103 0 2 .897 2 2s-.897 2-2 2h-4c-4.411 0-8 3.589-8 8s3.589 8 8 8h16v-2h-16c-3.309 0-6-2.691-6-6s2.691-6 6-6h4c2.206 0 4-1.794 4-4s-1.794-4-4-4h-4c-5.514 0-10-4.486-10-10s4.486-10 10-10h12c3.309 0 6 2.691 6 6s-2.691 6-6 6h-2v2h2c4.411 0 8-3.589 8-8s-3.589-8-8-8h-12c-6.617 0-12 5.383-12 12s5.383 12 12 12z"/><path d="m29 25h10v-2h-10c-3.309 0-6 2.691-6 6h2c0-2.206 1.794-4 4-4z"/></g></g></svg>

<?xml version="1.0" encoding="UTF-8" standalone="no"?>
<svg
   xmlns:dc="http://purl.org/dc/elements/1.1/"
   xmlns:cc="http://creativecommons.org/ns#"
   xmlns:rdf="http://www.w3.org/1999/02/22-rdf-syntax-ns#"
   xmlns:svg="http://www.w3.org/2000/svg"
   xmlns="http://www.w3.org/2000/svg"
   xmlns:sodipodi="http://sodipodi.sourceforge.net/DTD/sodipodi-0.dtd"
   xmlns:inkscape="http://www.inkscape.org/namespaces/inkscape"
   inkscape:version="1.0 (4035a4fb49, 2020-05-01)"
   sodipodi:docname="drug.svg"
   version="1.1"
   width="24"
   viewBox="0 0 3 3"
   height="24"
   enable-background="new 0 0 64 64"
   id="_x33_0">
  <metadata
     id="metadata45">
    <rdf:RDF>
      <cc:Work
         rdf:about="">
        <dc:format>image/svg+xml</dc:format>
        <dc:type
           rdf:resource="http://purl.org/dc/dcmitype/StillImage" />
        <dc:title></dc:title>
      </cc:Work>
    </rdf:RDF>
  </metadata>
  <defs
     id="defs43" />
  <sodipodi:namedview
     inkscape:current-layer="_x33_0"
     inkscape:window-maximized="1"
     inkscape:window-y="0"
     inkscape:window-x="0"
     inkscape:cy="28.058203"
     inkscape:cx="11.659234"
     inkscape:zoom="15.75"
     showgrid="false"
     id="namedview41"
     inkscape:window-height="1417"
     inkscape:window-width="2560"
     inkscape:pageshadow="2"
     inkscape:pageopacity="0"
     guidetolerance="10"
     gridtolerance="10"
     objecttolerance="10"
     borderopacity="1"
     bordercolor="#666666"
     pagecolor="#ffffff" />
  <g
     transform="matrix(0.0483871,0,0,0.0483871,-0.0483871,-0.0483871)"
     id="g38">
    <g
       id="g22">
      <g
         id="g4">
        <path
           id="path2"
           fill="#ccd1d9"
           d="m 40,20 c 3.31,0 6,2.69 6,6 0,1.66 -0.67,3.16 -1.76,4.24 C 43.16,31.33 41.66,32 40,32 H 26 c -2.21,0 -4,1.79 -4,4 0,1.1 0.45,2.1 1.17,2.83 C 23.9,39.55 24.9,40 26,40 h 3 v 4 H 13 C 9.13,44 6,40.87 6,37 6,35.06 6.78,33.32 8.05,32.05 9.32,30.78 11.06,30 13,30 h 4 c 1.66,0 3,-1.34 3,-3 0,-0.83 -0.34,-1.58 -0.88,-2.12 C 18.58,24.34 17.83,24 17,24 H 13 C 6.92,24 2,19.08 2,13 2,9.96 3.23,7.21 5.22,5.22 7.21,3.23 9.96,2 13,2 h 12 c 3.87,0 7,3.13 7,7 0,1.94 -0.78,3.68 -2.05,4.95 C 28.68,15.22 26.94,16 25,16 h -2 v 4 z" />
      </g>
      <g
         id="g8">
        <path
           id="path6"
           fill="#b27946"
           d="m 42,52 v 4 c 0,3.31 -2.69,6 -6,6 H 8 C 4.69,62 2,59.31 2,56 v -4 c 0,-1.1 0.9,-2 2,-2 h 12 c 0.55,0 1,0.45 1,1 0,1.38 0.56,2.63 1.46,3.54 0.91,0.9 2.16,1.46 3.54,1.46 1.38,0 2.63,-0.56 3.54,-1.46 C 26.44,53.63 27,52.38 27,51 c 0,-0.55 0.45,-1 1,-1 h 12 c 1.1,0 2,0.9 2,2 z" />
      </g>
      <g
         id="g12">
        <path
           id="path10"
           fill="#cf9e76"
           d="m 62,41 v 4 c 0,0.55 -0.45,1 -1,1 H 50 v -6 h 11 c 0.55,0 1,0.45 1,1 z" />
      </g>
      <g
         id="g16">
        <path
           id="path14"
           fill="#e6e9ed"
           d="m 36,40 h 14 v 6 H 36 Z" />
      </g>
      <g
         id="g20">
        <path
           id="path18"
           fill="#cf9e76"
           d="m 36,40 v 6 h -3 c -0.55,0 -1,-0.45 -1,-1 v -4 c 0,-0.55 0.45,-1 1,-1 z" />
      </g>
    </g>
    <g
       id="g36">
      <path
         id="path24"
         d="M 61,39 H 33 c -1.103,0 -2,0.897 -2,2 v 4 c 0,1.103 0.897,2 2,2 h 28 c 1.103,0 2,-0.897 2,-2 v -4 c 0,-1.103 -0.897,-2 -2,-2 z m -12,2 v 4 H 37 v -4 z m -16,0 h 2 v 4 h -2 z m 18,4 v -4 h 10 l 0.002,4 z" />
      <path
         id="path26"
         d="M 40,49 H 28 c -1.103,0 -2,0.897 -2,2 0,2.206 -1.794,4 -4,4 -2.206,0 -4,-1.794 -4,-4 0,-1.103 -0.897,-2 -2,-2 H 4 c -1.654,0 -3,1.346 -3,3 v 4 c 0,3.859 3.141,7 7,7 h 28 c 3.859,0 7,-3.141 7,-7 v -4 c 0,-1.654 -1.346,-3 -3,-3 z m 1,7 c 0,2.757 -2.243,5 -5,5 H 8 C 5.243,61 3,58.757 3,56 v -4 c 0,-0.552 0.448,-1 1,-1 h 12 c 0,3.309 2.691,6 6,6 3.309,0 6,-2.691 6,-6 h 12 c 0.552,0 1,0.448 1,1 z" />
      <path
         id="path28"
         d="m 27,21 h 13 c 2.757,0 5,2.243 5,5 0,2.757 -2.243,5 -5,5 H 26 c -2.757,0 -5,2.243 -5,5 0,2.757 2.243,5 5,5 h 3 v -2 h -3 c -1.654,0 -3,-1.346 -3,-3 0,-1.654 1.346,-3 3,-3 h 14 c 3.859,0 7,-3.14 7,-7 0,-3.86 -3.141,-7 -7,-7 H 27 Z" />
      <path
         id="path30"
         d="m 15,13 h -2 v 2 h 2 c 2.206,0 4,-1.794 4,-4 0,-2.206 -1.794,-4 -4,-4 -3.309,0 -6,2.691 -6,6 0,3.309 2.691,6 6,6 h 2 v -2 h -2 c -2.206,0 -4,-1.794 -4,-4 0,-2.206 1.794,-4 4,-4 1.103,0 2,0.897 2,2 0,1.103 -0.897,2 -2,2 z" />
      <path
         id="path32"
         d="m 13,25 h 4 c 1.103,0 2,0.897 2,2 0,1.103 -0.897,2 -2,2 h -4 c -4.411,0 -8,3.589 -8,8 0,4.411 3.589,8 8,8 H 29 V 43 H 13 C 9.691,43 7,40.309 7,37 7,33.691 9.691,31 13,31 h 4 c 2.206,0 4,-1.794 4,-4 0,-2.206 -1.794,-4 -4,-4 H 13 C 7.486,23 3,18.514 3,13 3,7.486 7.486,3 13,3 h 12 c 3.309,0 6,2.691 6,6 0,3.309 -2.691,6 -6,6 h -2 v 2 h 2 c 4.411,0 8,-3.589 8,-8 C 33,4.589 29.411,1 25,1 H 13 C 6.383,1 1,6.383 1,13 1,19.617 6.383,25 13,25 Z" />
      <path
         id="path34"
         d="M 29,25 H 39 V 23 H 29 c -3.309,0 -6,2.691 -6,6 h 2 c 0,-2.206 1.794,-4 4,-4 z" />
    </g>
  </g>
</svg>
